X:1
T:The man is blest (Ps 1)
T:The man is blest (Ps 1)
T:William Cobbold
T:Source : The Whole Book of Psalms---London---Musical Antiquarian Society---1844. First publication : London---Th.Est(e)---1592. Editor : André Vierendeels  (09/09/16).
T:(1560-1539)
T:©
T:©
T:©
C:William Cobbold
Z:©
%%score [ 1 [ 2 3 ] 4 ]
L:1/8
Q:1/4=120
M:4/4
K:F
V:1 treble nm="Soprano" snm="S"
V:2 treble-8 nm="Tenor 1" snm="T 1"
V:3 treble-8 nm="Tenor 2" snm="T 2"
V:4 bass nm="Bass" snm="B"
V:1
 A2 A4 B2 | c2 BA G2 G2 |[M:2/4] ^F4 ||[M:4/4] B2 A4 G2 | A3 G ^F4 ||"^-natural" F4 F2 F2 | %6
w: The man is|blest that _ hath not|bent,|to wic- ked|read his ear,|nor led his|
 B2 A2 G2 F2 |[M:2/4] E4 ||[M:4/4] D2 F4 F2 | F2 E2 F4 || D4 F2 G2 | G2 F2 D3 E |[M:2/4] F4 || %13
w: life as sin- ners|do,|nor sat in|scor- ner's chair,|but in the|law of God, the|Lord,|
[M:4/4] B4 A2 F2 | F2 G2 E4 || A4 A2 B2 | A2 A2 D2 E2 |[M:2/4] F4 |[M:4/4] A2 c4 A2 | %19
w: doth set his|whole de- light,|and in that|law doth ex- er-|cise,|him- self both|
 A3 G !fermata!^F4 |] %20
w: day and night.|
V:2
 d2 d4 f2 | e2 f2 d2 d2 |[M:2/4] d4 ||[M:4/4]"^-natural" d2 f3 e d2 | d2 ^c2 d4 || d4 d2 d2 | %6
w: The man is|blest that hath not|bent,|to wic- * ked|read his ear,|nor led his|
 d2 d2 G2 c2 |[M:2/4] c4 ||[M:4/4] B2 A4 B2 | c3 B A4 || B4 c2 B2 | c2 A2 B2 G2 |[M:2/4] c4 || %13
w: life as sin- ners|do,|nor sat in|scor- ner's chair,|but in the|law of God, the|Lord,|
[M:4/4] f4 e2 d2 | d2 d2 ^c4 || e4 d2 d2 | c2 F2 B2 G2 |[M:2/4] c4 |[M:4/4] f2 e4 d2 | %19
w: doth set his|whole de- light,|and in that|law doth ex- er-|cise,|him- self both|
 d2 ^c2 !fermata!d4 |] %20
w: day and night.|
V:3
 D2 F4 D2 | G2 F2 B2 B2 |[M:2/4] A4 ||[M:4/4] G2 A4 D2 | F2 E2 D4 || A4 A2 A2 | G2 F2 B2 A2 | %7
w: The man is|blest that hath not|bent,|to wic- ked|read his ear,|nor led his|life as sin- ners|
[M:2/4] G4 ||[M:4/4] G2 c4 F2 | A2 G2 F4 || F4 C2 D2 | E2 F2 G2 B2 |[M:2/4] A4 ||[M:4/4] d4 c2 A2 | %14
w: do,|nor sat in|scor- ner's chair,|but in the|law of Gor, the|Lord,|doth set his|
 B2 B2 A4 || c4 F2 G2 | A2 c2 B2 B2 |[M:2/4] A4 |[M:4/4] D2 G4 F2 | E2 E2 !fermata!D4 |] %20
w: whole de- light,|and in that|law doth ex- er-|cise,|him- self both|day and night.|
V:4
 D,2 D,4 D,2 | C,2 D,2 G,2 G,,2 |[M:2/4] D,4 ||[M:4/4] G,,2 D,3 C, B,,2 | A,,2 A,,2 D,4 || %5
w: The man is|blest that hath not|bent,|to wic- * ked|read his car,-|
 D,4 D,2 D,2 |"^b" G,,2 D,2 E,2 F,2 |[M:2/4] C,4 ||[M:4/4] G,2 F,4 D,2 | C,2 C,2 F,,4 || %10
w: e led his|life as sin- ners|do,|nor sat in|scor- ner's chair,|
 B,,4 A,,2 G,,2 | C,2 D,2 G,2 G,2 |[M:2/4] F,4 ||[M:4/4] B,,4 C,2 D,2 | B,,2 G,,2 A,,4 || %15
w: but in the|law of God, the|Lord,|doth set his|whole de- light,|
 A,,4 D,2 B,,2 | F,2 A,2 G,2 G,2 |[M:2/4] F,4 |[M:4/4] F,2 C,4 D,2 | A,,2 A,,2 !fermata!D,4 |] %20
w: and in that|law doth ex- er-|cise,|him- self both|day and night.|

